app/images/dist/status.svg

<svg width="48" height="48" viewBox="0 0 48 48" fill="none" xmlns="http://www.w3.org/2000/svg">
<path d="M6.70576 30.0991L5.97557 30.2704L6.70576 30.0991ZM6.70576 17.9009L5.97557 17.7296L5.97557 17.7296L6.70576 17.9009ZM41.2943 17.9009L40.5641 18.0721L41.2943 17.9009ZM41.2943 30.0991L40.5641 29.9279L41.2943 30.0991ZM30.0991 41.2943L29.9279 40.5641L30.0991 41.2943ZM17.9009 41.2943L18.0721 40.5641L17.9009 41.2943ZM17.9009 6.70575L18.0721 7.43593L17.9009 6.70575ZM30.0991 6.70575L29.9279 7.43593L30.0991 6.70575ZM16.2164 25.0029C15.9085 25.28 15.8835 25.7543 16.1606 26.0621C16.4377 26.37 16.9119 26.395 17.2198 26.1179L16.2164 25.0029ZM20.1311 22.4887L20.6328 23.0462H20.6328L20.1311 22.4887ZM23.254 22.8811L23.8781 22.465L23.254 22.8811ZM24.746 25.1189L24.1219 25.535L24.746 25.1189ZM27.8689 25.5113L27.3672 24.9538L27.8689 25.5113ZM31.7836 22.9971C32.0915 22.72 32.1165 22.2458 31.8394 21.9379C31.5623 21.63 31.0881 21.605 30.7802 21.8821L31.7836 22.9971ZM26.1491 26.575L26.0556 27.3191L26.1491 26.575ZM21.8509 21.425L21.7574 22.1692L21.8509 21.425ZM7.43594 29.9279C6.52135 26.0289 6.52135 21.9711 7.43594 18.0721L5.97557 17.7296C5.00814 21.8539 5.00814 26.1461 5.97557 30.2704L7.43594 29.9279ZM40.5641 18.0721C41.4786 21.9711 41.4786 26.0289 40.5641 29.9279L42.0244 30.2704C42.9919 26.1461 42.9919 21.8539 42.0244 17.7296L40.5641 18.0721ZM29.9279 40.5641C26.0289 41.4786 21.9711 41.4786 18.0721 40.5641L17.7296 42.0244C21.8539 42.9919 26.1461 42.9919 30.2704 42.0244L29.9279 40.5641ZM18.0721 7.43593C21.9711 6.52136 26.0289 6.52135 29.9279 7.43593L30.2704 5.97557C26.1461 5.00814 21.8539 5.00814 17.7296 5.97557L18.0721 7.43593ZM18.0721 40.5641C12.7946 39.3261 8.67388 35.2054 7.43594 29.9279L5.97557 30.2704C7.34362 36.1026 11.8974 40.6564 17.7296 42.0244L18.0721 40.5641ZM30.2704 42.0244C36.1026 40.6564 40.6564 36.1026 42.0244 30.2704L40.5641 29.9279C39.3261 35.2054 35.2054 39.3261 29.9279 40.5641L30.2704 42.0244ZM29.9279 7.43593C35.2054 8.67387 39.3261 12.7946 40.5641 18.0721L42.0244 17.7296C40.6564 11.8974 36.1026 7.34361 30.2704 5.97557L29.9279 7.43593ZM17.7296 5.97557C11.8974 7.34361 7.34362 11.8974 5.97557 17.7296L7.43594 18.0721C8.67388 12.7946 12.7946 8.67387 18.0721 7.43593L17.7296 5.97557ZM17.2198 26.1179L20.6328 23.0462L19.6294 21.9312L16.2164 25.0029L17.2198 26.1179ZM22.63 23.2971L24.1219 25.535L25.37 24.7029L23.8781 22.465L22.63 23.2971ZM28.3706 26.0688L31.7836 22.9971L30.7802 21.8821L27.3672 24.9538L28.3706 26.0688ZM24.1219 25.535C24.4197 25.9816 24.6859 26.3841 24.9436 26.6731C25.2153 26.9778 25.5638 27.2574 26.0556 27.3191L26.2426 25.8308C26.2426 25.8308 26.2387 25.832 26.219 25.8196C26.1925 25.8028 26.1424 25.7637 26.0631 25.6748C25.8924 25.4833 25.693 25.1874 25.37 24.7029L24.1219 25.535ZM27.3672 24.9538C26.9344 25.3434 26.668 25.5808 26.4552 25.724C26.3564 25.7906 26.2981 25.8161 26.2683 25.8258C26.2462 25.833 26.2427 25.8309 26.2426 25.8308L26.0556 27.3191C26.5475 27.3809 26.9542 27.1963 27.293 26.9683C27.6141 26.752 27.9716 26.4279 28.3706 26.0688L27.3672 24.9538ZM20.6328 23.0462C21.0656 22.6566 21.332 22.4193 21.5448 22.276C21.6436 22.2095 21.7019 22.1839 21.7317 22.1742C21.7538 22.167 21.7573 22.1691 21.7574 22.1692L21.9444 20.6809C21.4525 20.6191 21.0458 20.8037 20.707 21.0317C20.3859 21.248 20.0284 21.5721 19.6294 21.9312L20.6328 23.0462ZM23.8781 22.465C23.5803 22.0184 23.3141 21.6159 23.0564 21.3269C22.7847 21.0222 22.4362 20.7427 21.9444 20.6809L21.7574 22.1692C21.7574 22.1692 21.7613 22.168 21.781 22.1804C21.8075 22.1972 21.8576 22.2363 21.9369 22.3252C22.1076 22.5167 22.307 22.8126 22.63 23.2971L23.8781 22.465Z" fill="#DC143C"/>
</svg>

<svg width="48" height="48" fill="none" xmlns="http://www.w3.org/2000/svg"><path d="m6.706 30.1-.73.17.73-.17Zm0-12.2-.73-.17.73.17Zm34.588 0-.73.172.73-.171Zm0 12.2-.73-.172.73.171ZM30.1 41.293l-.171-.73.171.73Zm-12.198 0 .171-.73-.171.73Zm0-34.588.171.73-.171-.73Zm12.198 0-.171.73.171-.73ZM16.216 25.003a.75.75 0 1 0 1.004 1.115l-1.004-1.115Zm3.915-2.514.502.557-.502-.557Zm3.123.392.624-.416-.624.416Zm1.492 2.238-.624.416.624-.416Zm3.123.392-.502-.557.502.557Zm3.915-2.514a.75.75 0 1 0-1.004-1.115l1.004 1.115Zm-5.635 3.578-.093.744.093-.744Zm-4.298-5.15-.094.744.094-.744ZM7.436 29.928a25.957 25.957 0 0 1 0-11.856l-1.46-.342a27.457 27.457 0 0 0 0 12.54l1.46-.342Zm33.128-11.856a25.96 25.96 0 0 1 0 11.856l1.46.342a27.455 27.455 0 0 0 0-12.54l-1.46.342ZM29.928 40.564a25.96 25.96 0 0 1-11.856 0l-.342 1.46c4.124.968 8.416.968 12.54 0l-.342-1.46ZM18.072 7.436a25.958 25.958 0 0 1 11.856 0l.342-1.46a27.457 27.457 0 0 0-12.54 0l.342 1.46Zm0 33.128A14.273 14.273 0 0 1 7.436 29.928l-1.46.342A15.773 15.773 0 0 0 17.73 42.024l.342-1.46Zm12.198 1.46A15.773 15.773 0 0 0 42.024 30.27l-1.46-.342a14.273 14.273 0 0 1-10.636 10.636l.342 1.46Zm-.342-34.588a14.273 14.273 0 0 1 10.636 10.636l1.46-.342A15.773 15.773 0 0 0 30.27 5.976l-.342 1.46ZM17.73 5.976A15.773 15.773 0 0 0 5.976 17.73l1.46.342A14.273 14.273 0 0 1 18.072 7.436l-.342-1.46Zm-.51 20.142 3.413-3.072-1.004-1.115-3.413 3.072 1.004 1.115Zm5.41-2.82 1.492 2.237 1.248-.832-1.492-2.238-1.248.832Zm5.74 2.77 3.414-3.07-1.004-1.116-3.413 3.072 1.004 1.115Zm-4.248-.533c.298.447.564.85.822 1.138.271.305.62.584 1.112.646l.187-1.488s-.004.001-.024-.011a.812.812 0 0 1-.156-.145c-.17-.192-.37-.488-.693-.972l-1.248.832Zm3.245-.581c-.433.39-.699.627-.912.77a.809.809 0 0 1-.187.102c-.022.007-.025.005-.025.005l-.187 1.488c.491.062.898-.123 1.237-.35.321-.217.679-.541 1.078-.9l-1.004-1.115Zm-6.734-1.908c.433-.39.699-.627.912-.77a.813.813 0 0 1 .187-.102c.022-.007.025-.005.025-.005l.187-1.488c-.491-.062-.898.123-1.237.35-.321.217-.679.541-1.078.9l1.004 1.115Zm3.245-.581c-.298-.447-.564-.85-.822-1.138-.271-.305-.62-.584-1.112-.646l-.187 1.488s.004-.001.024.011a.812.812 0 0 1 .156.145c.17.192.37.488.693.972l1.248-.832Z" fill="#DC143C"/></svg>
